icons/circle/48/outline-client.svg

<svg xmlns="http://www.w3.org/2000/svg" viewBox="0 0 48 48">
  <defs>
    <linearGradient id="a" x2="0" y1="1" y2="47" gradientUnits="userSpaceOnUse">
      <stop style="stop-color:#106046;stop-opacity:1" offset="0"/>
      <stop style="stop-color:#0d4f38;stop-opacity:1" offset="1"/>
    </linearGradient>
  </defs>
  <path d="M36.31 4c5.859 4.062 9.688 10.831 9.688 18.5 0 12.426-10.07 22.5-22.5 22.5-7.669 0-14.438-3.828-18.5-9.688a23.24 23.24 0 0 0 3.781 4.969 22.923 22.923 0 0 0 15.469 5.969c12.703 0 23-10.298 23-23a22.92 22.92 0 0 0-5.969-15.469A23.216 23.216 0 0 0 36.31 4zm4.969 3.781A22.911 22.911 0 0 1 47.498 23.5c0 12.703-10.297 23-23 23a22.909 22.909 0 0 1-15.719-6.219C12.939 44.425 18.662 47 24.998 47c12.703 0 23-10.298 23-23 0-6.335-2.575-12.06-6.719-16.219z" style="opacity:.05"/>
  <path d="M41.28 7.781a22.923 22.923 0 0 1 5.969 15.469c0 12.703-10.297 23-23 23A22.92 22.92 0 0 1 8.78 40.281 22.911 22.911 0 0 0 24.499 46.5c12.703 0 23-10.298 23-23A22.909 22.909 0 0 0 41.28 7.781z" style="opacity:.1"/>
  <path d="M31.25 1.375C39.865 4.529 46 12.792 46 22.505c0 12.426-10.07 22.5-22.5 22.5-9.708 0-17.971-6.135-21.12-14.75a23 23 0 0 0 44.875-7 23 23 0 0 0-16-21.875z" style="opacity:.2"/>
  <circle cx="24" cy="23" r="23" style="fill:url(#a)"/>
  <path d="M40.03 6.531A22.922 22.922 0 0 1 45.999 22c0 12.703-10.297 23-23 23A22.92 22.92 0 0 1 7.53 39.031C11.708 43.322 17.54 46 23.999 46c12.703 0 23-10.298 23-23 0-6.462-2.677-12.291-6.969-16.469z" style="opacity:.1"/>
  <path fill="#062118" fill-opacity="0.1647" d="M27 9.3v6.085a9 9 0 0 1 7 8.765 9 9 0 0 1-7 8.764v6.084A15 15 0 0 0 40 24.15 15 15 0 0 0 27 9.3zm-4 .003A15 15 0 0 0 10 24.15 15 15 0 0 0 23 39V9.303z"/>
  <path fill="#5bb193" d="M22 8.303A15 15 0 0 0 9 23.15 15 15 0 0 0 22 38Z"/>
  <path fill="#ecf0ef" d="M26 8.3v6.085a9 9 0 0 1 7 8.765 9 9 0 0 1-7 8.764v6.084A15 15 0 0 0 39 23.15 15 15 0 0 0 26 8.3Z"/>
</svg>

<svg version="1.1" viewBox="0 0 48 48" xmlns="http://www.w3.org/2000/svg">
 <defs>
  <linearGradient id="a" x2="0" y1="1" y2="47" gradientUnits="userSpaceOnUse">
   <stop style="stop-color:#106046" offset="0"/>
   <stop style="stop-color:#0d4f38" offset="1"/>
  </linearGradient>
 </defs>
 <path d="m36.3 4c5.86 4.06 9.69 10.8 9.69 18.5 0 12.4-10.1 22.5-22.5 22.5-7.67 0-14.4-3.83-18.5-9.69a23.2 23.2 0 003.78 4.97 22.9 22.9 0 0015.5 5.97c12.7 0 23-10.3 23-23a22.9 22.9 0 00-5.97-15.5 23.2 23.2 0 00-4.97-3.78zm4.97 3.78a22.9 22.9 0 016.22 15.7c0 12.7-10.3 23-23 23a22.9 22.9 0 01-15.7-6.22c4.16 4.14 9.88 6.72 16.2 6.72 12.7 0 23-10.3 23-23 0-6.34-2.58-12.1-6.72-16.2z" style="opacity:.05"/>
 <path d="m41.3 7.78a22.9 22.9 0 015.97 15.5c0 12.7-10.3 23-23 23a22.9 22.9 0 01-15.5-5.97 22.9 22.9 0 0015.7 6.22c12.7 0 23-10.3 23-23a22.9 22.9 0 00-6.22-15.7z" style="opacity:.1"/>
 <path d="m31.2 1.38c8.62 3.15 14.8 11.4 14.8 21.1 0 12.4-10.1 22.5-22.5 22.5-9.71 0-18-6.14-21.1-14.8a23 23 0 0044.9-7 23 23 0 00-16-21.9z" style="opacity:.2"/>
 <circle cx="24" cy="23" r="23" style="fill:url(#a)"/>
 <path d="m40 6.53a22.9 22.9 0 015.97 15.5c0 12.7-10.3 23-23 23a22.9 22.9 0 01-15.5-5.97c4.18 4.29 10 6.97 16.5 6.97 12.7 0 23-10.3 23-23 0-6.46-2.68-12.3-6.97-16.5z" style="opacity:.1"/>
 <path d="m27 9.3v6.08a9 9 0 017 8.76 9 9 0 01-7 8.76v6.08a15 15 0 0013-14.8 15 15 0 00-13-14.8zm-4 .003a15 15 0 00-13 14.8 15 15 0 0013 14.8v-29.7z" fill="#062118" style="opacity:.1"/>
 <path d="m22 8.3a15 15 0 00-13 14.8 15 15 0 0013 14.8z" fill="#5bb193"/>
 <path d="m26 8.3v6.08a9 9 0 017 8.76 9 9 0 01-7 8.76v6.08a15 15 0 0013-14.8 15 15 0 00-13-14.8z" fill="#ecf0ef"/>
</svg>
